src/static/logos/mithril.svg

<?xml version="1.0" encoding="UTF-8" standalone="no"?>
<svg width="256px" height="243px" viewBox="0 0 256 243" version="1.1" xmlns="http://www.w3.org/2000/svg" xmlns:xlink="http://www.w3.org/1999/xlink" preserveAspectRatio="xMidYMid">
	<g fill="#58A958">
		<path d="M213.619472,156.000953 C213.619472,179.8656 205.128987,200.285685 188.150196,217.263387 C171.169226,234.244357 150.813413,242.731574 127.084936,242.731574 C103.220289,242.731574 82.8002043,234.244357 65.8225021,217.263387 C48.8415319,200.285685 40.3532255,179.8656 40.3532255,156.000953 C40.3532255,132.138485 48.8415319,111.749991 65.8225021,94.8365617 C82.8002043,77.9231319 103.154928,69.466417 126.887762,69.466417 C150.882043,69.466417 171.334809,77.9231319 188.249328,94.8365617 C205.162757,111.749991 213.619472,132.138485 213.619472,156.000953 L213.619472,156.000953 Z M198.67234,156.000953 C198.67234,136.205072 191.690621,119.322145 177.727183,105.357617 C163.763745,91.3952681 146.880817,84.4124596 127.084936,84.4124596 C107.285787,84.4124596 90.3712681,91.4617191 76.3435574,105.554791 C62.3125787,119.650043 55.3003574,136.466519 55.3003574,156.000953 C55.3003574,175.538655 62.3125787,192.384545 76.3435574,206.545157 C90.3712681,220.704681 107.285787,227.785532 127.084936,227.785532 C146.751183,227.785532 163.598162,220.738451 177.62914,206.6432 C191.656851,192.550128 198.67234,175.6672 198.67234,156.000953 L198.67234,156.000953 Z"></path>
		<path d="M173.352306,87.1271489 C173.352306,110.991796 164.861821,131.411881 147.88303,148.389583 C130.90206,165.370553 110.547336,173.85886 86.8177702,173.85886 C62.9531234,173.85886 42.5330383,165.370553 25.5553362,148.389583 C8.57436596,131.411881 0.0871489362,110.991796 0.0871489362,87.1271489 C0.0871489362,63.2657702 8.57436596,42.8761872 25.5553362,25.9627574 C42.5330383,9.04932766 62.8888511,0.592612766 86.6205957,0.592612766 C110.614877,0.592612766 131.067643,9.04932766 147.982162,25.9627574 C164.895591,42.8761872 173.352306,63.2657702 173.352306,87.1271489 L173.352306,87.1271489 Z M158.405174,87.1271489 C158.405174,67.3312681 151.423455,50.4483404 137.460017,36.4849021 C123.496579,22.5214638 106.613651,15.5397447 86.8177702,15.5397447 C67.0186213,15.5397447 50.1051915,22.5890043 36.0774809,36.6809872 C22.0454128,50.7773277 15.0331915,67.5927149 15.0331915,87.1271489 C15.0331915,106.664851 22.0454128,123.51074 36.0774809,137.671353 C50.1051915,151.831966 67.0186213,158.911728 86.8177702,158.911728 C106.484017,158.911728 123.330996,151.865736 137.361974,137.769396 C151.389685,123.677413 158.405174,106.794485 158.405174,87.1271489 L158.405174,87.1271489 Z"></path>
		<path d="M255.520681,87.1271489 C255.520681,110.991796 247.031285,131.411881 230.053583,148.389583 C213.071523,165.370553 192.715711,173.85886 168.987234,173.85886 C145.122587,173.85886 124.702502,165.370553 107.7248,148.389583 C90.7427404,131.411881 82.2555234,110.991796 82.2555234,87.1271489 C82.2555234,63.2657702 90.7427404,42.8761872 107.7248,25.9627574 C124.702502,9.04932766 145.057226,0.592612766 168.79006,0.592612766 C192.78434,0.592612766 213.237106,9.04932766 230.151626,25.9627574 C247.065055,42.8761872 255.520681,63.2657702 255.520681,87.1271489 L255.520681,87.1271489 Z M240.574638,87.1271489 C240.574638,67.3312681 233.592919,50.4483404 219.628391,36.4849021 C205.666043,22.5214638 188.783115,15.5397447 168.987234,15.5397447 C149.188085,15.5397447 132.273566,22.5890043 118.245855,36.6809872 C104.214877,50.7773277 97.2026553,67.5927149 97.2026553,87.1271489 C97.2026553,106.664851 104.214877,123.51074 118.245855,137.671353 C132.273566,151.831966 149.188085,158.911728 168.987234,158.911728 C188.653481,158.911728 205.50046,151.865736 219.530349,137.769396 C233.55806,123.677413 240.574638,106.794485 240.574638,87.1271489 L240.574638,87.1271489 Z"></path>
	</g>
</svg>

<svg width="256" height="243" xmlns="http://www.w3.org/2000/svg" preserveAspectRatio="xMidYMid"><g fill="#58A958"><path d="M213.62 156.001c0 23.865-8.491 44.285-25.47 61.262-16.98 16.981-37.337 25.469-61.065 25.469-23.865 0-44.285-8.488-61.262-25.469-16.981-16.977-25.47-37.397-25.47-61.262 0-23.863 8.489-44.251 25.47-61.164 16.977-16.914 37.332-25.37 61.065-25.37 23.994 0 44.447 8.456 61.361 25.37 16.914 16.913 25.37 37.301 25.37 61.164zm-14.948 0c0-19.796-6.981-36.679-20.945-50.643-13.963-13.963-30.846-20.946-50.642-20.946-19.8 0-36.714 7.05-50.741 21.143C62.313 119.65 55.3 136.467 55.3 156c0 19.538 7.013 36.384 21.044 50.544 14.027 14.16 30.942 21.24 50.74 21.24 19.667 0 36.514-7.047 50.545-21.142 14.028-14.093 21.043-30.976 21.043-50.642z"/><path d="M173.352 87.127c0 23.865-8.49 44.285-25.469 61.263-16.98 16.98-37.336 25.469-61.065 25.469-23.865 0-44.285-8.488-61.263-25.47C8.575 131.413.087 110.993.087 87.128c0-23.861 8.487-44.25 25.468-61.164C42.533 9.049 62.89.593 86.621.593c23.994 0 44.447 8.456 61.361 25.37 16.914 16.913 25.37 37.303 25.37 61.164zm-14.947 0c0-19.796-6.982-36.679-20.945-50.642C123.497 22.52 106.614 15.54 86.818 15.54c-19.8 0-36.713 7.049-50.74 21.141-14.033 14.096-21.045 30.912-21.045 50.446 0 19.538 7.012 36.384 21.044 50.544 14.028 14.161 30.942 21.24 50.74 21.24 19.667 0 36.514-7.045 50.545-21.142 14.028-14.092 21.043-30.975 21.043-50.642z"/><path d="M255.52 87.127c0 23.865-8.489 44.285-25.466 61.263-16.982 16.98-37.338 25.469-61.067 25.469-23.864 0-44.284-8.488-61.262-25.47-16.982-16.977-25.47-37.397-25.47-61.262 0-23.861 8.488-44.25 25.47-61.164C124.703 9.049 145.057.593 168.79.593c23.994 0 44.447 8.456 61.362 25.37 16.913 16.913 25.369 37.303 25.369 61.164zm-14.945 0c0-19.796-6.982-36.679-20.947-50.642-13.962-13.964-30.845-20.945-50.64-20.945-19.8 0-36.714 7.049-50.742 21.141-14.031 14.096-21.043 30.912-21.043 50.446 0 19.538 7.012 36.384 21.043 50.544 14.028 14.161 30.942 21.24 50.741 21.24 19.666 0 36.513-7.045 50.543-21.142 14.028-14.092 21.045-30.975 21.045-50.642z"/></g></svg>
